source/images/icon-serverdev.svg

<?xml version="1.0" encoding="UTF-8"?>
<svg width="124px" height="70px" viewBox="0 0 124 70" version="1.1" xmlns="http://www.w3.org/2000/svg" xmlns:xlink="http://www.w3.org/1999/xlink">
    <!-- Generator: Sketch 41.2 (35397) - https://www.sketchapp.com -->
    <title>icon-serverdev</title>
    <desc>Created with Sketch.</desc>
    <defs></defs>
    <g id="Updated-HOME-+-icons" stroke="none" stroke-width="1" fill="none" fill-rule="evenodd">
        <g id="Artboard" transform="translate(-127.000000, -433.000000)">
            <g id="icon-serverdev" transform="translate(127.000000, 433.000000)">
                <path d="M105.9368,29.758 C104.6598,29.758 103.4138,29.896 102.2098,30.15 C102.2098,30.079 102.2158,30.018 102.2158,29.951 C102.2158,13.406 88.8068,0 72.2678,0 C58.2988,0 46.5648,9.566 43.2548,22.501 C41.7358,22.17 40.1588,21.989 38.5418,21.989 C30.9608,21.989 24.2838,25.848 20.3598,31.706 L53.5828,31.706 C54.8508,31.706 55.8888,32.744 55.8888,34.012 L55.8888,65.72 L105.9368,65.72 C115.8668,65.72 123.9178,57.673 123.9178,47.739 C123.9178,37.805 115.8668,29.758 105.9368,29.758" id="Fill-1" fill="#0093C9"></path>
                <path d="M42.9774,39.998 C43.8024,39.998 44.4724,40.667 44.4724,41.493 C44.4724,42.318 43.8024,42.987 42.9774,42.987 C42.1524,42.987 41.4824,42.318 41.4824,41.493 C41.4824,40.667 42.1524,39.998 42.9774,39.998" id="Fill-3" fill="#0093C9"></path>
                <path d="M42.9774,39.998 C43.8024,39.998 44.4724,40.667 44.4724,41.493 C44.4724,42.318 43.8024,42.987 42.9774,42.987 C42.1524,42.987 41.4824,42.318 41.4824,41.493 C41.4824,40.667 42.1524,39.998 42.9774,39.998 Z" id="Stroke-5" stroke="#0093C9" stroke-width="1.128"></path>
                <path d="M45.9667,44.482 C46.7917,44.482 47.4617,45.151 47.4617,45.977 C47.4617,46.802 46.7917,47.471 45.9667,47.471 C45.1417,47.471 44.4717,46.802 44.4717,45.977 C44.4717,45.151 45.1417,44.482 45.9667,44.482" id="Fill-7" fill="#0093C9"></path>
                <path d="M45.9667,44.482 C46.7917,44.482 47.4617,45.151 47.4617,45.977 C47.4617,46.802 46.7917,47.471 45.9667,47.471 C45.1417,47.471 44.4717,46.802 44.4717,45.977 C44.4717,45.151 45.1417,44.482 45.9667,44.482 Z" id="Stroke-9" stroke="#0093C9" stroke-width="1.128"></path>
                <path d="M36.9988,39.998 C37.8238,39.998 38.4938,40.667 38.4938,41.493 C38.4938,42.318 37.8238,42.987 36.9988,42.987 C36.1738,42.987 35.5038,42.318 35.5038,41.493 C35.5038,40.667 36.1738,39.998 36.9988,39.998" id="Fill-11" fill="#0093C9"></path>
                <path d="M36.9988,39.998 C37.8238,39.998 38.4938,40.667 38.4938,41.493 C38.4938,42.318 37.8238,42.987 36.9988,42.987 C36.1738,42.987 35.5038,42.318 35.5038,41.493 C35.5038,40.667 36.1738,39.998 36.9988,39.998 Z" id="Stroke-13" stroke="#0093C9" stroke-width="1.128"></path>
                <path d="M39.9881,44.482 C40.8131,44.482 41.4831,45.151 41.4831,45.977 C41.4831,46.802 40.8131,47.471 39.9881,47.471 C39.1631,47.471 38.4931,46.802 38.4931,45.977 C38.4931,45.151 39.1631,44.482 39.9881,44.482" id="Fill-15" fill="#0093C9"></path>
                <path d="M39.9881,44.482 C40.8131,44.482 41.4831,45.151 41.4831,45.977 C41.4831,46.802 40.8131,47.471 39.9881,47.471 C39.1631,47.471 38.4931,46.802 38.4931,45.977 C38.4931,45.151 39.1631,44.482 39.9881,44.482 Z" id="Stroke-17" stroke="#0093C9" stroke-width="1.128"></path>
                <path d="M31.0202,39.998 C31.8452,39.998 32.5152,40.667 32.5152,41.493 C32.5152,42.318 31.8452,42.987 31.0202,42.987 C30.1952,42.987 29.5252,42.318 29.5252,41.493 C29.5252,40.667 30.1952,39.998 31.0202,39.998" id="Fill-19" fill="#0093C9"></path>
                <path d="M31.0202,39.998 C31.8452,39.998 32.5152,40.667 32.5152,41.493 C32.5152,42.318 31.8452,42.987 31.0202,42.987 C30.1952,42.987 29.5252,42.318 29.5252,41.493 C29.5252,40.667 30.1952,39.998 31.0202,39.998 Z" id="Stroke-21" stroke="#0093C9" stroke-width="1.128"></path>
                <path d="M34.0095,44.482 C34.8345,44.482 35.5045,45.151 35.5045,45.977 C35.5045,46.802 34.8345,47.471 34.0095,47.471 C33.1845,47.471 32.5145,46.802 32.5145,45.977 C32.5145,45.151 33.1845,44.482 34.0095,44.482" id="Fill-23" fill="#0093C9"></path>
                <path d="M34.0095,44.482 C34.8345,44.482 35.5045,45.151 35.5045,45.977 C35.5045,46.802 34.8345,47.471 34.0095,47.471 C33.1845,47.471 32.5145,46.802 32.5145,45.977 C32.5145,45.151 33.1845,44.482 34.0095,44.482 Z" id="Stroke-25" stroke="#0093C9" stroke-width="1.128"></path>
                <path d="M25.0416,39.998 C25.8666,39.998 26.5366,40.667 26.5366,41.493 C26.5366,42.318 25.8666,42.987 25.0416,42.987 C24.2166,42.987 23.5466,42.318 23.5466,41.493 C23.5466,40.667 24.2166,39.998 25.0416,39.998" id="Fill-27" fill="#0093C9"></path>
                <path d="M25.0416,39.998 C25.8666,39.998 26.5366,40.667 26.5366,41.493 C26.5366,42.318 25.8666,42.987 25.0416,42.987 C24.2166,42.987 23.5466,42.318 23.5466,41.493 C23.5466,40.667 24.2166,39.998 25.0416,39.998 Z" id="Stroke-29" stroke="#0093C9" stroke-width="1.128"></path>
                <path d="M28.0309,44.482 C28.8559,44.482 29.5259,45.151 29.5259,45.977 C29.5259,46.802 28.8559,47.471 28.0309,47.471 C27.2059,47.471 26.5359,46.802 26.5359,45.977 C26.5359,45.151 27.2059,44.482 28.0309,44.482" id="Fill-31" fill="#0093C9"></path>
                <path d="M28.0309,44.482 C28.8559,44.482 29.5259,45.151 29.5259,45.977 C29.5259,46.802 28.8559,47.471 28.0309,47.471 C27.2059,47.471 26.5359,46.802 26.5359,45.977 C26.5359,45.151 27.2059,44.482 28.0309,44.482 Z" id="Stroke-33" stroke="#0093C9" stroke-width="1.128"></path>
                <path d="M51.343,48.7026 C51.343,49.9766 50.307,51.0126 49.034,51.0126 L4.079,51.0126 C2.806,51.0126 1.77,49.9766 1.77,48.7036 L1.77,38.2716 C1.77,36.9986 2.806,35.9636 4.079,35.9636 L49.033,35.9636 C50.307,35.9636 51.343,36.9986 51.343,38.2716 L51.343,48.7026 Z M51.343,65.5216 C51.343,66.7956 50.307,67.8316 49.034,67.8316 L4.079,67.8316 C2.806,67.8316 1.77,66.7956 1.77,65.5226 L1.77,55.0916 C1.77,53.8186 2.806,52.7826 4.079,52.7826 L49.033,52.7826 C50.307,52.7826 51.343,53.8186 51.343,55.0916 L51.343,65.5216 Z M27.442,69.6016 L49.034,69.6016 C51.284,69.6016 53.113,67.7726 53.113,65.5226 L53.113,55.0916 C53.113,53.7906 52.491,52.6446 51.54,51.8976 C52.491,51.1506 53.113,50.0026 53.113,48.7036 L53.113,38.2716 C53.113,36.0226 51.284,34.1926 49.034,34.1926 L4.079,34.1926 C1.83,34.1926 0,36.0226 0,38.2716 L0,48.7026 C0,50.0026 0.622,51.1506 1.573,51.8976 C0.622,52.6446 0,53.7916 0,55.0916 L0,65.5216 C0,67.7726 1.83,69.6016 4.079,69.6016 L25.671,69.6016 L27.442,69.6016 Z" id="Fill-35" fill="#0093C9"></path>
                <path d="M13.509,43.4878 C13.509,46.0168 11.459,48.0668 8.93,48.0668 C6.401,48.0668 4.351,46.0168 4.351,43.4878 C4.351,40.9588 6.401,38.9088 8.93,38.9088 C11.459,38.9088 13.509,40.9588 13.509,43.4878" id="Fill-37" fill="#0093C9"></path>
                <path d="M42.9774,56.8173 C43.8024,56.8173 44.4724,57.4863 44.4724,58.3123 C44.4724,59.1373 43.8024,59.8063 42.9774,59.8063 C42.1524,59.8063 41.4824,59.1373 41.4824,58.3123 C41.4824,57.4863 42.1524,56.8173 42.9774,56.8173" id="Fill-39" fill="#0093C9"></path>
                <path d="M42.9774,56.8173 C43.8024,56.8173 44.4724,57.4863 44.4724,58.3123 C44.4724,59.1373 43.8024,59.8063 42.9774,59.8063 C42.1524,59.8063 41.4824,59.1373 41.4824,58.3123 C41.4824,57.4863 42.1524,56.8173 42.9774,56.8173 Z" id="Stroke-41" stroke="#0093C9" stroke-width="1.128"></path>
                <path d="M45.9667,61.3013 C46.7917,61.3013 47.4617,61.9703 47.4617,62.7963 C47.4617,63.6213 46.7917,64.2903 45.9667,64.2903 C45.1417,64.2903 44.4717,63.6213 44.4717,62.7963 C44.4717,61.9703 45.1417,61.3013 45.9667,61.3013" id="Fill-43" fill="#0093C9"></path>
                <path d="M45.9667,61.3013 C46.7917,61.3013 47.4617,61.9703 47.4617,62.7963 C47.4617,63.6213 46.7917,64.2903 45.9667,64.2903 C45.1417,64.2903 44.4717,63.6213 44.4717,62.7963 C44.4717,61.9703 45.1417,61.3013 45.9667,61.3013 Z" id="Stroke-45" stroke="#0093C9" stroke-width="1.128"></path>
                <path d="M36.9988,56.8173 C37.8238,56.8173 38.4938,57.4863 38.4938,58.3123 C38.4938,59.1373 37.8238,59.8063 36.9988,59.8063 C36.1738,59.8063 35.5038,59.1373 35.5038,58.3123 C35.5038,57.4863 36.1738,56.8173 36.9988,56.8173" id="Fill-47" fill="#0093C9"></path>
                <path d="M36.9988,56.8173 C37.8238,56.8173 38.4938,57.4863 38.4938,58.3123 C38.4938,59.1373 37.8238,59.8063 36.9988,59.8063 C36.1738,59.8063 35.5038,59.1373 35.5038,58.3123 C35.5038,57.4863 36.1738,56.8173 36.9988,56.8173 Z" id="Stroke-49" stroke="#0093C9" stroke-width="1.128"></path>
                <path d="M39.9881,61.3013 C40.8131,61.3013 41.4831,61.9703 41.4831,62.7963 C41.4831,63.6213 40.8131,64.2903 39.9881,64.2903 C39.1631,64.2903 38.4931,63.6213 38.4931,62.7963 C38.4931,61.9703 39.1631,61.3013 39.9881,61.3013" id="Fill-51" fill="#0093C9"></path>
                <path d="M39.9881,61.3013 C40.8131,61.3013 41.4831,61.9703 41.4831,62.7963 C41.4831,63.6213 40.8131,64.2903 39.9881,64.2903 C39.1631,64.2903 38.4931,63.6213 38.4931,62.7963 C38.4931,61.9703 39.1631,61.3013 39.9881,61.3013 Z" id="Stroke-53" stroke="#0093C9" stroke-width="1.128"></path>
                <path d="M31.0202,56.8173 C31.8452,56.8173 32.5152,57.4863 32.5152,58.3123 C32.5152,59.1373 31.8452,59.8063 31.0202,59.8063 C30.1952,59.8063 29.5252,59.1373 29.5252,58.3123 C29.5252,57.4863 30.1952,56.8173 31.0202,56.8173" id="Fill-55" fill="#0093C9"></path>
                <path d="M31.0202,56.8173 C31.8452,56.8173 32.5152,57.4863 32.5152,58.3123 C32.5152,59.1373 31.8452,59.8063 31.0202,59.8063 C30.1952,59.8063 29.5252,59.1373 29.5252,58.3123 C29.5252,57.4863 30.1952,56.8173 31.0202,56.8173 Z" id="Stroke-57" stroke="#0093C9" stroke-width="1.128"></path>
                <path d="M34.0095,61.3013 C34.8345,61.3013 35.5045,61.9703 35.5045,62.7963 C35.5045,63.6213 34.8345,64.2903 34.0095,64.2903 C33.1845,64.2903 32.5145,63.6213 32.5145,62.7963 C32.5145,61.9703 33.1845,61.3013 34.0095,61.3013" id="Fill-59" fill="#0093C9"></path>
                <path d="M34.0095,61.3013 C34.8345,61.3013 35.5045,61.9703 35.5045,62.7963 C35.5045,63.6213 34.8345,64.2903 34.0095,64.2903 C33.1845,64.2903 32.5145,63.6213 32.5145,62.7963 C32.5145,61.9703 33.1845,61.3013 34.0095,61.3013 Z" id="Stroke-61" stroke="#0093C9" stroke-width="1.128"></path>
                <path d="M25.0416,56.8173 C25.8666,56.8173 26.5366,57.4863 26.5366,58.3123 C26.5366,59.1373 25.8666,59.8063 25.0416,59.8063 C24.2166,59.8063 23.5466,59.1373 23.5466,58.3123 C23.5466,57.4863 24.2166,56.8173 25.0416,56.8173" id="Fill-63" fill="#0093C9"></path>
                <path d="M25.0416,56.8173 C25.8666,56.8173 26.5366,57.4863 26.5366,58.3123 C26.5366,59.1373 25.8666,59.8063 25.0416,59.8063 C24.2166,59.8063 23.5466,59.1373 23.5466,58.3123 C23.5466,57.4863 24.2166,56.8173 25.0416,56.8173 Z" id="Stroke-65" stroke="#0093C9" stroke-width="1.128"></path>
                <path d="M28.0309,61.3013 C28.8559,61.3013 29.5259,61.9703 29.5259,62.7963 C29.5259,63.6213 28.8559,64.2903 28.0309,64.2903 C27.2059,64.2903 26.5359,63.6213 26.5359,62.7963 C26.5359,61.9703 27.2059,61.3013 28.0309,61.3013" id="Fill-67" fill="#0093C9"></path>
                <path d="M28.0309,61.3013 C28.8559,61.3013 29.5259,61.9703 29.5259,62.7963 C29.5259,63.6213 28.8559,64.2903 28.0309,64.2903 C27.2059,64.2903 26.5359,63.6213 26.5359,62.7963 C26.5359,61.9703 27.2059,61.3013 28.0309,61.3013 Z" id="Stroke-69" stroke="#0093C9" stroke-width="1.128"></path>
                <path d="M13.509,60.307 C13.509,62.836 11.459,64.886 8.93,64.886 C6.401,64.886 4.351,62.836 4.351,60.307 C4.351,57.778 6.401,55.728 8.93,55.728 C11.459,55.728 13.509,57.778 13.509,60.307" id="Fill-71" fill="#0093C9"></path>
            </g>
        </g>
    </g>
</svg>

<svg height="70" viewBox="0 0 124 70" width="124" xmlns="http://www.w3.org/2000/svg"><g fill="none" fill-rule="evenodd"><path d="m105.9368 29.758c-1.277 0-2.523.138-3.727.392 0-.071.006-.132.006-.199 0-16.545-13.409-29.951-29.948-29.951-13.969 0-25.703 9.566-29.013 22.501-1.519-.331-3.096-.512-4.713-.512-7.581 0-14.258 3.859-18.182 9.717h33.223c1.268 0 2.306 1.038 2.306 2.306v31.708h50.048c9.93 0 17.981-8.047 17.981-17.981s-8.051-17.981-17.981-17.981" fill="#0093c9"/><path d="m42.9774 39.998c.825 0 1.495.669 1.495 1.495 0 .825-.67 1.494-1.495 1.494s-1.495-.669-1.495-1.494c0-.826.67-1.495 1.495-1.495" fill="#0093c9"/><path d="m42.9774 39.998c.825 0 1.495.669 1.495 1.495 0 .825-.67 1.494-1.495 1.494s-1.495-.669-1.495-1.494c0-.826.67-1.495 1.495-1.495z" stroke="#0093c9" stroke-width="1.128"/><path d="m45.9667 44.482c.825 0 1.495.669 1.495 1.495 0 .825-.67 1.494-1.495 1.494s-1.495-.669-1.495-1.494c0-.826.67-1.495 1.495-1.495" fill="#0093c9"/><path d="m45.9667 44.482c.825 0 1.495.669 1.495 1.495 0 .825-.67 1.494-1.495 1.494s-1.495-.669-1.495-1.494c0-.826.67-1.495 1.495-1.495z" stroke="#0093c9" stroke-width="1.128"/><path d="m36.9988 39.998c.825 0 1.495.669 1.495 1.495 0 .825-.67 1.494-1.495 1.494s-1.495-.669-1.495-1.494c0-.826.67-1.495 1.495-1.495" fill="#0093c9"/><path d="m36.9988 39.998c.825 0 1.495.669 1.495 1.495 0 .825-.67 1.494-1.495 1.494s-1.495-.669-1.495-1.494c0-.826.67-1.495 1.495-1.495z" stroke="#0093c9" stroke-width="1.128"/><path d="m39.9881 44.482c.825 0 1.495.669 1.495 1.495 0 .825-.67 1.494-1.495 1.494s-1.495-.669-1.495-1.494c0-.826.67-1.495 1.495-1.495" fill="#0093c9"/><path d="m39.9881 44.482c.825 0 1.495.669 1.495 1.495 0 .825-.67 1.494-1.495 1.494s-1.495-.669-1.495-1.494c0-.826.67-1.495 1.495-1.495z" stroke="#0093c9" stroke-width="1.128"/><path d="m31.0202 39.998c.825 0 1.495.669 1.495 1.495 0 .825-.67 1.494-1.495 1.494s-1.495-.669-1.495-1.494c0-.826.67-1.495 1.495-1.495" fill="#0093c9"/><path d="m31.0202 39.998c.825 0 1.495.669 1.495 1.495 0 .825-.67 1.494-1.495 1.494s-1.495-.669-1.495-1.494c0-.826.67-1.495 1.495-1.495z" stroke="#0093c9" stroke-width="1.128"/><path d="m34.0095 44.482c.825 0 1.495.669 1.495 1.495 0 .825-.67 1.494-1.495 1.494s-1.495-.669-1.495-1.494c0-.826.67-1.495 1.495-1.495" fill="#0093c9"/><path d="m34.0095 44.482c.825 0 1.495.669 1.495 1.495 0 .825-.67 1.494-1.495 1.494s-1.495-.669-1.495-1.494c0-.826.67-1.495 1.495-1.495z" stroke="#0093c9" stroke-width="1.128"/><path d="m25.0416 39.998c.825 0 1.495.669 1.495 1.495 0 .825-.67 1.494-1.495 1.494s-1.495-.669-1.495-1.494c0-.826.67-1.495 1.495-1.495" fill="#0093c9"/><path d="m25.0416 39.998c.825 0 1.495.669 1.495 1.495 0 .825-.67 1.494-1.495 1.494s-1.495-.669-1.495-1.494c0-.826.67-1.495 1.495-1.495z" stroke="#0093c9" stroke-width="1.128"/><path d="m28.0309 44.482c.825 0 1.495.669 1.495 1.495 0 .825-.67 1.494-1.495 1.494s-1.495-.669-1.495-1.494c0-.826.67-1.495 1.495-1.495" fill="#0093c9"/><path d="m28.0309 44.482c.825 0 1.495.669 1.495 1.495 0 .825-.67 1.494-1.495 1.494s-1.495-.669-1.495-1.494c0-.826.67-1.495 1.495-1.495z" stroke="#0093c9" stroke-width="1.128"/><g fill="#0093c9"><path d="m51.343 48.7026c0 1.274-1.036 2.31-2.309 2.31h-44.955c-1.273 0-2.309-1.036-2.309-2.309v-10.432c0-1.273 1.036-2.308 2.309-2.308h44.954c1.274 0 2.31 1.035 2.31 2.308zm0 16.819c0 1.274-1.036 2.31-2.309 2.31h-44.955c-1.273 0-2.309-1.036-2.309-2.309v-10.431c0-1.273 1.036-2.309 2.309-2.309h44.954c1.274 0 2.31 1.036 2.31 2.309zm-23.901 4.08h21.592c2.25 0 4.079-1.829 4.079-4.079v-10.431c0-1.301-.622-2.447-1.573-3.194.951-.747 1.573-1.895 1.573-3.194v-10.432c0-2.249-1.829-4.079-4.079-4.079h-44.955c-2.249 0-4.079 1.83-4.079 4.079v10.431c0 1.3.622 2.448 1.573 3.195-.951.747-1.573 1.894-1.573 3.194v10.43c0 2.251 1.83 4.08 4.079 4.08h21.592z"/><path d="m13.509 43.4878c0 2.529-2.05 4.579-4.579 4.579s-4.579-2.05-4.579-4.579 2.05-4.579 4.579-4.579 4.579 2.05 4.579 4.579"/><path d="m42.9774 56.8173c.825 0 1.495.669 1.495 1.495 0 .825-.67 1.494-1.495 1.494s-1.495-.669-1.495-1.494c0-.826.67-1.495 1.495-1.495"/></g><path d="m42.9774 56.8173c.825 0 1.495.669 1.495 1.495 0 .825-.67 1.494-1.495 1.494s-1.495-.669-1.495-1.494c0-.826.67-1.495 1.495-1.495z" stroke="#0093c9" stroke-width="1.128"/><path d="m45.9667 61.3013c.825 0 1.495.669 1.495 1.495 0 .825-.67 1.494-1.495 1.494s-1.495-.669-1.495-1.494c0-.826.67-1.495 1.495-1.495" fill="#0093c9"/><path d="m45.9667 61.3013c.825 0 1.495.669 1.495 1.495 0 .825-.67 1.494-1.495 1.494s-1.495-.669-1.495-1.494c0-.826.67-1.495 1.495-1.495z" stroke="#0093c9" stroke-width="1.128"/><path d="m36.9988 56.8173c.825 0 1.495.669 1.495 1.495 0 .825-.67 1.494-1.495 1.494s-1.495-.669-1.495-1.494c0-.826.67-1.495 1.495-1.495" fill="#0093c9"/><path d="m36.9988 56.8173c.825 0 1.495.669 1.495 1.495 0 .825-.67 1.494-1.495 1.494s-1.495-.669-1.495-1.494c0-.826.67-1.495 1.495-1.495z" stroke="#0093c9" stroke-width="1.128"/><path d="m39.9881 61.3013c.825 0 1.495.669 1.495 1.495 0 .825-.67 1.494-1.495 1.494s-1.495-.669-1.495-1.494c0-.826.67-1.495 1.495-1.495" fill="#0093c9"/><path d="m39.9881 61.3013c.825 0 1.495.669 1.495 1.495 0 .825-.67 1.494-1.495 1.494s-1.495-.669-1.495-1.494c0-.826.67-1.495 1.495-1.495z" stroke="#0093c9" stroke-width="1.128"/><path d="m31.0202 56.8173c.825 0 1.495.669 1.495 1.495 0 .825-.67 1.494-1.495 1.494s-1.495-.669-1.495-1.494c0-.826.67-1.495 1.495-1.495" fill="#0093c9"/><path d="m31.0202 56.8173c.825 0 1.495.669 1.495 1.495 0 .825-.67 1.494-1.495 1.494s-1.495-.669-1.495-1.494c0-.826.67-1.495 1.495-1.495z" stroke="#0093c9" stroke-width="1.128"/><path d="m34.0095 61.3013c.825 0 1.495.669 1.495 1.495 0 .825-.67 1.494-1.495 1.494s-1.495-.669-1.495-1.494c0-.826.67-1.495 1.495-1.495" fill="#0093c9"/><path d="m34.0095 61.3013c.825 0 1.495.669 1.495 1.495 0 .825-.67 1.494-1.495 1.494s-1.495-.669-1.495-1.494c0-.826.67-1.495 1.495-1.495z" stroke="#0093c9" stroke-width="1.128"/><path d="m25.0416 56.8173c.825 0 1.495.669 1.495 1.495 0 .825-.67 1.494-1.495 1.494s-1.495-.669-1.495-1.494c0-.826.67-1.495 1.495-1.495" fill="#0093c9"/><path d="m25.0416 56.8173c.825 0 1.495.669 1.495 1.495 0 .825-.67 1.494-1.495 1.494s-1.495-.669-1.495-1.494c0-.826.67-1.495 1.495-1.495z" stroke="#0093c9" stroke-width="1.128"/><path d="m28.0309 61.3013c.825 0 1.495.669 1.495 1.495 0 .825-.67 1.494-1.495 1.494s-1.495-.669-1.495-1.494c0-.826.67-1.495 1.495-1.495" fill="#0093c9"/><path d="m28.0309 61.3013c.825 0 1.495.669 1.495 1.495 0 .825-.67 1.494-1.495 1.494s-1.495-.669-1.495-1.494c0-.826.67-1.495 1.495-1.495z" stroke="#0093c9" stroke-width="1.128"/><path d="m13.509 60.307c0 2.529-2.05 4.579-4.579 4.579s-4.579-2.05-4.579-4.579 2.05-4.579 4.579-4.579 4.579 2.05 4.579 4.579" fill="#0093c9"/></g></svg>
